theme/icons/table.svg

<svg viewBox="0 0 20 20" fill="none" xmlns="http://www.w3.org/2000/svg">
<path d="M3.41176 6.0625V8.6875H7.17647V6.0625H3.41176ZM3.41176 9.5625V12.1875H7.17647V9.5625H3.41176ZM3.41176 13.0625V15.6875H7.17647V13.0625H3.41176ZM8.11765 15.6875H11.8824V13.0625H8.11765V15.6875ZM12.8235 15.6875H16.5882V13.0625H12.8235V15.6875ZM16.5882 12.1875V9.5625H12.8235V12.1875H16.5882ZM16.5882 8.6875V6.0625H12.8235V8.6875H16.5882ZM18 15.6875C18 16.0356 17.8513 16.3694 17.5865 16.6156C17.3217 16.8617 16.9627 17 16.5882 17H3.41176C3.03734 17 2.67825 16.8617 2.4135 16.6156C2.14874 16.3694 2 16.0356 2 15.6875V4.3125C2.20894 3.55738 3.00518 3 3.88235 3H16.1176C16.9948 3 17.7911 3.55738 18 4.3125V15.6875ZM11.8824 12.1875V9.5625H8.11765V12.1875H11.8824ZM11.8824 8.6875V6.0625H8.11765V8.6875H11.8824Z" fill="black"/>
</svg>

<svg viewBox="0 0 20 20" xmlns="http://www.w3.org/2000/svg"><path d="M3.412 6.063v2.625h3.764V6.062H3.412zm0 3.5v2.624h3.764V9.563H3.412zm0 3.5v2.624h3.764v-2.624H3.412zm4.706 2.624h3.764v-2.624H8.118v2.624zm4.705 0h3.765v-2.624h-3.765v2.624zm3.765-3.5V9.563h-3.765v2.624h3.765zm0-3.5V6.063h-3.765v2.625h3.765zm1.412 7c0 .349-.149.682-.413.929a1.468 1.468 0 01-.999.384H3.412c-.375 0-.734-.138-.998-.384A1.268 1.268 0 012 15.688V4.312C2.209 3.558 3.005 3 3.882 3h12.236c.877 0 1.673.557 1.882 1.313v11.375zm-6.118-3.5V9.563H8.118v2.624h3.764zm0-3.5V6.063H8.118v2.625h3.764z"/></svg>
